Costumes/z-block.svg

<?xml version="1.0" encoding="UTF-8" standalone="no"?>
<svg
   version="1.1"
   width="58.753441"
   height="79.917198"
   id="svg5"
   sodipodi:docname="z-block.svg"
   xmlns:inkscape="http://www.inkscape.org/namespaces/inkscape"
   xmlns:sodipodi="http://sodipodi.sourceforge.net/DTD/sodipodi-0.dtd"
   xmlns="http://www.w3.org/2000/svg"
   xmlns:svg="http://www.w3.org/2000/svg">
  <defs
     id="defs9" />
  <sodipodi:namedview
     id="namedview7"
     pagecolor="#ffffff"
     bordercolor="#000000"
     borderopacity="0.25"
     inkscape:showpageshadow="2"
     inkscape:pageopacity="0.0"
     inkscape:pagecheckerboard="0"
     inkscape:deskcolor="#d1d1d1" />
  <!-- Exported by Scratch - http://scratch.mit.edu/ -->
  <g
     id="ID0.4446126422844827"
     transform="translate(-0.08336383,-0.95986921)">
    <path
       id="ID0.08609286043792963"
       d="m 283,352 c 1,0 2,0 3,0 8.197,0 8.483,-0.089 11,0 12.032,2.021 29.416,-2.221 42,2 2.137,12.727 2.681,14.617 1,18 -8.397,11.495 -20.687,22.653 -28,33 5.883,2.838 15.574,-5.082 26,-4 1.091,6.35 -0.153,15.666 1,24 -2.162,2.255 -3.411,-0.828 -7,0 -0.708,3.708 1.708,4.292 1,8 -18.825,1.85 -38.265,-0.018 -51,6 -0.667,0 -1.333,0 -2,0 -3.149,-7.683 -0.482,-15.342 -3,-24 10.648,-11.686 18.798,-25.869 30,-37 -10.825,-1.376 -19.675,4.169 -29,1 -0.777,-8.477 0.06,-10.983 -1,-18 0.726,-2.274 6.921,0.921 6,-3 0,-2 0,-4 0,-6 z m 4,5 c -1.067,2.847 -1.067,6.968 0,11 14.546,1.645 23.06,-3.731 34,0 -4.034,12.966 -16.864,17.136 -20,31 -6.542,6.012 -18.481,15.415 -13,27 16.922,-0.011 34.726,-6.639 47,-5 -1.311,-6.049 2.708,-10.06 -1,-16 -10.117,1.889 -23.034,6.291 -31,7 5.688,-19.333 32.615,-26.035 33,-54 -18.681,-1.341 -31.73,-0.473 -49,-1 z"
       transform="matrix(0.91817099,0,0,0.91817099,-254.25,-322.2)" />
    <path
       id="ID0.5058415131643414"
       fill="#ff9400"
       d="m 336,358 c -0.385,27.965 -27.312,34.667 -33,54 7.966,-0.709 20.883,-5.111 31,-7 3.708,5.94 -0.311,9.951 1,16 -12.274,-1.639 -30.078,4.989 -47,5 -5.481,-11.585 6.458,-20.988 13,-27 3.136,-13.864 15.966,-18.034 20,-31 -10.94,-3.731 -19.454,1.645 -34,0 -1.067,-4.032 -1.067,-8.153 0,-11 17.27,0.527 30.319,-0.341 49,1 z"
       transform="matrix(0.91817099,0,0,0.91817099,-254.25,-322.2)" />
  </g>
</svg>

<svg version="1.1" width="59" height="81" xmlns="http://www.w3.org/2000/svg" xmlns:xlink="http://www.w3.org/1999/xlink">
  <!-- Exported by Scratch - http://scratch.mit.edu/ -->
  <g id="ID0.4446126422844827">
    <path id="ID0.08609286043792963" d="M 283 352 C 284 352 285 352 286 352 C 294.197 352 294.483 351.911 297 352 C 309.032 354.021 326.416 349.779 339 354 C 341.137 366.727 341.681 368.617 340 372 C 331.603 383.495 319.313 394.653 312 405 C 317.883 407.838 327.574 399.918 338 401 C 339.091 407.350 337.847 416.666 339 425 C 336.838 427.255 335.589 424.172 332 425 C 331.292 428.708 333.708 429.292 333 433 C 314.175 434.850 294.735 432.982 282 439 C 281.333 439 280.667 439 280 439 C 276.851 431.317 279.518 423.658 277 415 C 287.648 403.314 295.798 389.131 307 378 C 296.175 376.624 287.325 382.169 278 379 C 277.223 370.523 278.060 368.017 277 361 C 277.726 358.726 283.921 361.921 283 358 C 283 356 283 354 283 352 Z M 287 357 C 285.933 359.847 285.933 363.968 287 368 C 301.546 369.645 310.060 364.269 321 368 C 316.966 380.966 304.136 385.136 301 399 C 294.458 405.012 282.519 414.415 288 426 C 304.922 425.989 322.726 419.361 335 421 C 333.689 414.951 337.708 410.940 334 405 C 323.883 406.889 310.966 411.291 303 412 C 308.688 392.667 335.615 385.965 336 358 C 317.319 356.659 304.270 357.527 287 357 Z " transform="matrix(0.9181709885597229, 0, 0, 0.9181709885597229, -254.25, -322.2)"/>
    <path id="ID0.5058415131643414" fill="#FF9400" d="M 336 358 C 335.615 385.965 308.688 392.667 303 412 C 310.966 411.291 323.883 406.889 334 405 C 337.708 410.940 333.689 414.951 335 421 C 322.726 419.361 304.922 425.989 288 426 C 282.519 414.415 294.458 405.012 301 399 C 304.136 385.136 316.966 380.966 321 368 C 310.060 364.269 301.546 369.645 287 368 C 285.933 363.968 285.933 359.847 287 357 C 304.270 357.527 317.319 356.659 336 358 Z " transform="matrix(0.9181709885597229, 0, 0, 0.9181709885597229, -254.25, -322.2)"/>
  </g>
</svg>
